X:1
T:James Gibb editions
T:From Sinai's trembling peak - Barnby
%%score [ ( 1 2 ) ( 3 4 ) ]
L:1/8
Q:1/4=72
M:4/4
K:Eb
V:1 treble nm="Midi_74"
V:2 treble 
V:3 bass nm="Midi_74"
V:4 bass 
V:1
"^Joseph Barnby\n(1838-96)""^S.M.""^From Sinai's trembling peak" G2 | c2 B2 A2 GF | G6 || G2 | %4
 c2 G2 c2 e2 | d6 ||[M:4/4] d2 | f2 e2 d2 c2 | =B2 =AG"^1" c2 ||"^1" _A2 | G2 FE D2 D2 | C6 || %12
 F4 =E4 |] %13
V:2
 G2 | c2 B2 A2 GF | G6 || D2 | G2 D2 G2 ^F2 | G6 ||[M:4/4] G2 | A2 G2 A2 =A2 | G2 D2 G2 || F2 | %10
 D2 C2 C2- =B,2 | C6 || C4 C4 |] %13
V:3
 G,2 | C2 B,2 A,2 (G,F,) | G,6 || =B,2 | C2 =B,2 G,2 =A,2 | =B,6 ||[M:4/4] =B,2 | =B,2 C2 F2 =E2 | %8
 D2 =B,2 C2 || C2 | D2 G,2 G,2 F,2 | E,6 || A,4 G,4 |] %13
V:4
 G,2 | C2 B,2 A,2 G,F, | G,6 || G,2 | E,2 G,2 E,2 C,2 | G,6 ||[M:4/4] G,2 | D,2 E,2 F,2 ^F,2 | %8
 G,2 =F,2 E,2 || F,2 | =B,,2 C,2 G,,2 G,,2 | C,6 || F,,4 C,4 |] %13

